X: 45
T:Bobbing Joan. BC.45
M:3/4
L:1/8
Q:150
S:Benjamin Cooke MS.circa 1770, F.Kidson Coll.
R:Misc.
O:England
A:Uncertain, probably northern
Z:vmp.John Bagnall
K:D
"6/8 in MS"fd. Bc. d2 | fd Bd ce | fd. Bc. d2| Ac/d/ eA ce ||!
df ag f2 | df/g/ ag fa | bagf e2 | Ac/d/ eA ce |]
